48x48/apps/com.github.zren.volumeslider.svg

<svg height="48" width="48" xmlns="http://www.w3.org/2000/svg"><path d="m41.315 9.001a2.609 2.527 0 0 0 -1.554.553l-34.783 26.948a2.609 2.527 0 0 0 1.63 4.498h34.783a2.609 2.527 0 0 0 2.609-2.526v-26.948a2.609 2.527 0 0 0 -2.685-2.526z" opacity=".2"/><path d="m41.315 8.001a2.609 2.527 0 0 0 -1.554.553l-34.783 26.948a2.609 2.527 0 0 0 1.63 4.498h34.783a2.609 2.527 0 0 0 2.609-2.526v-26.948a2.609 2.527 0 0 0 -2.685-2.526z" fill="#00c0ff"/><path d="m36 11.469-4 3.1-4 3.097v22.334h8z" opacity=".2"/><path d="m28 17.666-4 3.1-4 3.1v16.134h8z" opacity=".3"/><path d="m20 23.865-4 3.098-4 3.1v9.937h8z" opacity=".4"/><path d="m12 30.063-4 3.1-3.021 2.339a2.609 2.527 0 0 0 -.979 1.982 2.609 2.527 0 0 0 2.607 2.516h5.393v-9.938z" opacity=".5"/><path d="m41.314 8.002a2.609 2.527 0 0 0 -1.552.553l-34.783 26.947a2.609 2.527 0 0 0 -.926 2.469 2.609 2.527 0 0 1 .926-1.469l34.783-26.947a2.609 2.527 0 0 1 1.552-.553 2.609 2.527 0 0 1 2.686 2.523v-1a2.609 2.527 0 0 0 -2.686-2.523z" fill="#f4f4f7" opacity=".1"/><path d="m36 11.469-1 .775v27.756h1zm-8 6.197-1 .775v21.559h1zm-8 6.2-1 .773v15.361h1v-16.135zm-8 6.197-1 .775v9.162h1v-9.938z" opacity=".05"/></svg>

<svg height="48" width="48" xmlns="http://www.w3.org/2000/svg">
    <path d="M41.315 9.001a2.609 2.527 0 0 0-1.554.553L4.978 36.502A2.609 2.527 0 0 0 6.608 41h34.783A2.609 2.527 0 0 0 44 38.474V11.526A2.609 2.527 0 0 0 41.315 9z" opacity=".2"/>
    <path d="M41.315 8.001a2.609 2.527 0 0 0-1.554.553L4.978 35.502A2.609 2.527 0 0 0 6.608 40h34.783A2.609 2.527 0 0 0 44 37.474V10.526A2.609 2.527 0 0 0 41.315 8z" fill="#00c0ff"/>
    <path d="m36 11.469-4 3.1-4 3.097V40h8z" opacity=".2"/>
    <path d="m28 17.666-4 3.1-4 3.1V40h8z" opacity=".3"/>
    <path d="m20 23.865-4 3.098-4 3.1V40h8z" opacity=".4"/>
    <path d="m12 30.063-4 3.1-3.021 2.339A2.609 2.527 0 0 0 4 37.484 2.609 2.527 0 0 0 6.607 40H12v-9.938z" opacity=".5"/>
    <path d="M41.314 8.002a2.609 2.527 0 0 0-1.552.553L4.979 35.502a2.609 2.527 0 0 0-.926 2.469 2.609 2.527 0 0 1 .926-1.469L39.762 9.555a2.609 2.527 0 0 1 1.552-.553A2.609 2.527 0 0 1 44 11.525v-1a2.609 2.527 0 0 0-2.686-2.523z" fill="#f4f4f7" opacity=".1"/>
    <path d="m36 11.469-1 .775V40h1zm-8 6.197-1 .775V40h1zm-8 6.2-1 .773V40h1V23.865zm-8 6.197-1 .775V40h1v-9.938z" opacity=".05"/>
</svg>
